X:15721
T:Son d'Arriba
C:Tradicional
S:Msica Tradicional Asturiana, (C) Tello & Tito. Asturies, 2001.
S:http://pagina.de/MusTradAst <telloytito@asturies.org>
N:Ye'l baille ms representativu del conceyu de Cangas del Narcea.
N:Conozse tamin n'otres fasteres d'Asturies y nel norte de Llen con distintos nomes: baille'l pas, baille de las castauelas, garrucha...
N:Lo que ms llama l'atencin ye lo gayaspero del so canciu, asinamesmu que l'allargamientu de les notes finales de cada cuarteta.
N:P'acompaalu sense panderos cuadraos y castaueles grandes, que son esclusives d'esti baille.
O:Cangas del Narcea
A:Asturies
Z:Danzas y Bailes I
M:3/8
L:1/8
Q:3/8=96
K:C
|E2 G|G c B|A3/2 G/A|A B A|G3/2 F/E-|E3|
|G2 G|G c B|A3/2 G/A|F G A|G G/A/ B-|BA2-|G3-|G3-|G3|
